; G-Code generated by Simplify3D(R) Version 4.0.0
; Oct 23, 2022 at 12:26:37 PM
; Settings Summary
;   processName,Process1
;   applyToModels,DCF77-Stand_Prototype
;   profileName,PLA_Standard (modified)
;   profileVersion,2022-03-05 15:44:09
;   baseProfile,
;   printMaterial,
;   printQuality,
;   printExtruders,
;   extruderName,Primary Extruder
;   extruderToolheadNumber,0
;   extruderDiameter,0.4
;   extruderAutoWidth,0
;   extruderWidth,0.4
;   extrusionMultiplier,1
;   extruderUseRetract,1
;   extruderRetractionDistance,5
;   extruderExtraRestartDistance,0
;   extruderRetractionZLift,0.15
;   extruderRetractionSpeed,3600
;   extruderUseCoasting,1
;   extruderCoastingDistance,0.2
;   extruderUseWipe,0
;   extruderWipeDistance,5
;   primaryExtruder,0
;   layerHeight,0.2
;   topSolidLayers,3
;   bottomSolidLayers,3
;   perimeterOutlines,3
;   printPerimetersInsideOut,1
;   startPointOption,2
;   startPointOriginX,0
;   startPointOriginY,0
;   sequentialIslands,0
;   spiralVaseMode,0
;   firstLayerHeightPercentage,100
;   firstLayerWidthPercentage,100
;   firstLayerUnderspeed,0.5
;   useRaft,0
;   raftExtruder,0
;   raftTopLayers,3
;   raftBaseLayers,2
;   raftOffset,3
;   raftSeparationDistance,0.14
;   raftTopInfill,100
;   aboveRaftSpeedMultiplier,0.3
;   useSkirt,1
;   skirtExtruder,0
;   skirtLayers,1
;   skirtOutlines,2
;   skirtOffset,2
;   usePrimePillar,0
;   primePillarExtruder,999
;   primePillarWidth,10
;   primePillarLocation,4
;   primePillarSpeedMultiplier,1
;   useOozeShield,0
;   oozeShieldExtruder,999
;   oozeShieldOffset,2
;   oozeShieldOutlines,1
;   oozeShieldSidewallShape,1
;   oozeShieldSidewallAngle,30
;   oozeShieldSpeedMultiplier,1
;   infillExtruder,0
;   internalInfillPattern,Full Honeycomb
;   externalInfillPattern,Rectilinear
;   infillPercentage,20
;   outlineOverlapPercentage,20
;   infillExtrusionWidthPercentage,100
;   minInfillLength,3
;   infillLayerInterval,1
;   internalInfillAngles,0,120,-120
;   overlapInternalInfillAngles,0
;   externalInfillAngles,45,-45
;   generateSupport,0
;   supportExtruder,0
;   supportInfillPercentage,45
;   supportExtraInflation,0
;   supportBaseLayers,0
;   denseSupportExtruder,0
;   denseSupportLayers,0
;   denseSupportInfillPercentage,70
;   supportLayerInterval,1
;   supportHorizontalPartOffset,0.3
;   supportUpperSeparationLayers,1
;   supportLowerSeparationLayers,1
;   supportType,0
;   supportGridSpacing,1
;   maxOverhangAngle,30
;   supportAngles,0,90
;   temperatureName,Primary Extruder,Bed
;   temperatureNumber,0,1
;   temperatureSetpointCount,1,1
;   temperatureSetpointLayers,1,1
;   temperatureSetpointTemperatures,220,60
;   temperatureStabilizeAtStartup,1,1
;   temperatureHeatedBed,0,1
;   temperatureRelayBetweenLayers,0,0
;   temperatureRelayBetweenLoops,0,0
;   fanLayers,1,2
;   fanSpeeds,0,100
;   blipFanToFullPower,0
;   adjustSpeedForCooling,1
;   minSpeedLayerTime,15
;   minCoolingSpeedSlowdown,20
;   increaseFanForCooling,0
;   minFanLayerTime,45
;   maxCoolingFanSpeed,100
;   increaseFanForBridging,0
;   bridgingFanSpeed,100
;   use5D,1
;   relativeEdistances,0
;   allowEaxisZeroing,1
;   independentExtruderAxes,0
;   includeM10123,0
;   stickySupport,1
;   applyToolheadOffsets,0
;   gcodeXoffset,0
;   gcodeYoffset,0
;   gcodeZoffset,0
;   overrideMachineDefinition,1
;   machineTypeOverride,0
;   strokeXoverride,205
;   strokeYoverride,205
;   strokeZoverride,205
;   originOffsetXoverride,0
;   originOffsetYoverride,0
;   originOffsetZoverride,0
;   homeXdirOverride,-1
;   homeYdirOverride,-1
;   homeZdirOverride,-1
;   flipXoverride,1
;   flipYoverride,-1
;   flipZoverride,1
;   toolheadOffsets,0,0|0,0|0,0|0,0|0,0|0,0
;   overrideFirmwareConfiguration,0
;   firmwareTypeOverride,RepRap (Marlin/Repetier/Sprinter)
;   GPXconfigOverride,r2
;   baudRateOverride,115200
;   overridePrinterModels,0
;   printerModelsOverride
;   startingGcode,G28 ; home all axes
;   layerChangeGcode,
;   retractionGcode,
;   toolChangeGcode,
;   endingGcode,M104 S0 ; turn off extruder,M140 S0 ; turn off bed,G91 ; set relative mode,G0 Z10 F3000 ; move 10mm up,G90 ; set absolute mode,G1 X0 Y0 F3000 ; move X and Y home,M84 ; disable motors,G4 P60000 ; wait 2 minutes,M106 S0  ; turn off fan
;   exportFileFormat,gcode
;   celebration,0
;   celebrationSong,Random Song
;   postProcessing,
;   defaultSpeed,3600
;   outlineUnderspeed,0.5
;   solidInfillUnderspeed,0.8
;   supportUnderspeed,0.8
;   rapidXYspeed,4800
;   rapidZspeed,1000
;   minBridgingArea,50
;   bridgingExtraInflation,0
;   bridgingExtrusionMultiplier,1
;   bridgingSpeedMultiplier,1
;   useFixedBridgingAngle,0
;   fixedBridgingAngle,0
;   applyBridgingToPerimeters,0
;   filamentDiameters,1.75|1.75|1.75|1.75|1.75|1.75
;   filamentPricesPerKg,30|46|46|46|46|46
;   filamentDensities,1.25|1.25|1.25|1.25|1.25|1.25
;   useMinPrintHeight,0
;   minPrintHeight,0
;   useMaxPrintHeight,0
;   maxPrintHeight,0
;   useDiaphragm,0
;   diaphragmLayerInterval,20
;   robustSlicing,1
;   mergeAllIntoSolid,0
;   onlyRetractWhenCrossingOutline,1
;   retractBetweenLayers,1
;   useRetractionMinTravel,0
;   retractionMinTravel,3
;   retractWhileWiping,0
;   onlyWipeOutlines,1
;   avoidCrossingOutline,0
;   maxMovementDetourFactor,3
;   toolChangeRetractionDistance,12
;   toolChangeExtraRestartDistance,-0.5
;   toolChangeRetractionSpeed,600
;   externalThinWallType,0
;   internalThinWallType,2
;   thinWallAllowedOverlapPercentage,10
;   singleExtrusionMinLength,1
;   singleExtrusionMinPrintingWidthPercentage,50
;   singleExtrusionMaxPrintingWidthPercentage,200
;   singleExtrusionEndpointExtension,0.2
;   horizontalSizeCompensation,0
G90
M82
M106 S0
M140 S60
M190 S60
M104 S220 T0
M109 S220 T0
G28 ; home all axes
G92 E0
G1 E-5.0000 F3600
G1 Z0.350 F1000
; process Process1
; layer 1, Z = 0.200
T0
; tool H0.200 W0.400
; skirt
G1 X26.552 Y67.400 F4800
G1 Z0.200 F1000
G1 E0.0000 F1080
G92 E0
G1 X38.448 Y67.400 E0.3956 F1800
G1 X38.668 Y67.491 E0.4036
G1 X40.009 Y68.832 E0.4666
G1 X40.100 Y69.052 E0.4746
G1 X40.100 Y122.400 E2.2489
G1 X164.900 Y122.400 E6.3998
G1 X164.900 Y102.052 E7.0766
G1 X164.991 Y101.832 E7.0845
G1 X166.332 Y100.491 E7.1475
G1 X166.552 Y100.400 E7.1555
G1 X178.448 Y100.400 E7.5511
G1 X178.668 Y100.491 E7.5591
G1 X180.009 Y101.832 E7.6221
G1 X180.100 Y102.052 E7.6301
G1 X180.100 Y135.948 E8.7574
G1 X180.009 Y136.168 E8.7654
G1 X178.668 Y137.509 E8.8284
G1 X178.448 Y137.600 E8.8364
G1 X26.552 Y137.600 E13.8884
G1 X26.332 Y137.509 E13.8964
G1 X24.991 Y136.168 E13.9594
G1 X24.900 Y135.948 E13.9673
G1 X24.900 Y69.052 E16.1923
G1 X24.991 Y68.832 E16.2002
G1 X26.332 Y67.491 E16.2633
G1 X26.367 Y67.477 E16.2646
G1 X26.552 Y67.400 F1800
G1 X26.632 Y67.800 F4800
G92 E0
G1 X38.368 Y67.800 E0.3904 F1800
G1 X38.442 Y67.830 E0.3930
G1 X39.670 Y69.058 E0.4508
G1 X39.700 Y69.132 E0.4534
G1 X39.700 Y122.800 E2.2384
G1 X165.300 Y122.800 E6.4159
G1 X165.300 Y102.132 E7.1033
G1 X165.330 Y102.058 E7.1060
G1 X166.558 Y100.830 E7.1637
G1 X166.632 Y100.800 E7.1664
G1 X178.368 Y100.800 E7.5567
G1 X178.442 Y100.830 E7.5594
G1 X179.670 Y102.058 E7.6171
G1 X179.700 Y102.132 E7.6198
G1 X179.700 Y135.868 E8.7418
G1 X179.670 Y135.942 E8.7445
G1 X178.442 Y137.170 E8.8022
G1 X178.368 Y137.200 E8.8049
G1 X26.632 Y137.200 E13.8517
G1 X26.558 Y137.170 E13.8543
G1 X25.330 Y135.942 E13.9121
G1 X25.300 Y135.868 E13.9147
G1 X25.300 Y69.132 E16.1344
G1 X25.330 Y69.058 E16.1370
G1 X26.473 Y67.916 E16.1908
G1 X26.558 Y67.830 F1800
G1 X26.632 Y67.800 F1800
G92 E0
G1 E-5.0000 F3600
G1 Z0.350 F1000
; inner perimeter
G1 X28.500 Y71.000 F4800
G1 Z0.200 F1000
G1 E0.0000 F3600
G92 E0
G1 X36.500 Y71.000 E0.2661 F1350
G1 X36.500 Y126.000 E2.0954
G1 X168.500 Y126.000 E6.4857
G1 X168.500 Y104.000 E7.2174
G1 X176.500 Y104.000 E7.4835
G1 X176.500 Y134.000 E8.4813
G1 X28.500 Y134.000 E13.4038
G1 X28.500 Y71.200 E15.4926
G1 X28.500 Y71.000 F1350
G1 X28.100 Y70.600 F4800
G92 E0
G1 X36.900 Y70.600 E0.2927 F1350
G1 X36.900 Y125.600 E2.1220
G1 X168.100 Y125.600 E6.4857
G1 X168.100 Y103.600 E7.2174
G1 X176.900 Y103.600 E7.5101
G1 X176.900 Y134.400 E8.5346
G1 X28.100 Y134.400 E13.4837
G1 X28.100 Y70.800 E15.5990
G1 X28.100 Y70.600 F1350
; outer perimeter
G1 X27.700 Y70.200 F4800
G92 E0
G1 X37.300 Y70.200 E0.3193 F900
G1 X37.300 Y125.200 E2.1486
G1 X167.700 Y125.200 E6.4857
G1 X167.700 Y103.200 E7.2174
G1 X177.300 Y103.200 E7.5367
G1 X177.300 Y134.800 E8.5878
G1 X27.700 Y134.800 E13.5635
G1 X27.700 Y70.400 E15.7054
G1 X27.700 Y70.200 F900
; solid layer
G1 X36.180 Y71.818 F4800
G92 E0
G1 X35.682 Y71.320 E0.0234 F1440
G1 X35.116 Y71.320 E0.0422
G1 X36.180 Y72.384 E0.0923
G1 X36.180 Y72.950 E0.1111
G1 X34.550 Y71.320 E0.1878
G1 X33.985 Y71.320 E0.2066
G1 X36.180 Y73.515 E0.3098
G1 X36.180 Y74.081 E0.3286
G1 X33.419 Y71.320 E0.4585
G1 X32.853 Y71.320 E0.4773
G1 X36.180 Y74.647 E0.6338
G1 X36.180 Y75.212 E0.6526
G1 X32.288 Y71.320 E0.8357
G1 X31.722 Y71.320 E0.8545
G1 X36.180 Y75.778 E1.0642
G1 X36.180 Y76.344 E1.0830
G1 X31.156 Y71.320 E1.3193
G1 X30.591 Y71.320 E1.3381
G1 X36.180 Y76.909 E1.6010
G1 X36.180 Y77.475 E1.6198
G1 X30.025 Y71.320 E1.9093
G1 X29.459 Y71.320 E1.9282
G1 X36.180 Y78.041 E2.2443
G1 X36.180 Y78.606 E2.2631
G1 X28.894 Y71.320 E2.6058
G1 X28.820 Y71.320 E2.6083
G1 X28.820 Y71.812 E2.6246
G1 X36.180 Y79.172 E2.9708
G1 X36.180 Y79.738 E2.9897
G1 X28.820 Y72.378 E3.3358
G1 X28.820 Y72.943 E3.3547
G1 X36.180 Y80.303 E3.7009
G1 X36.180 Y80.869 E3.7197
G1 X28.820 Y73.509 E4.0659
G1 X28.820 Y74.075 E4.0847
G1 X36.180 Y81.435 E4.4309
G1 X36.180 Y82.001 E4.4497
G1 X28.820 Y74.641 E4.7959
G1 X28.820 Y75.206 E4.8147
G1 X36.180 Y82.566 E5.1609
G1 X36.180 Y83.132 E5.1797
G1 X28.820 Y75.772 E5.5259
G1 X28.820 Y76.338 E5.5447
G1 X36.180 Y83.698 E5.8909
G1 X36.180 Y84.263 E5.9097
G1 X28.820 Y76.903 E6.2559
G1 X28.820 Y77.469 E6.2747
G1 X36.180 Y84.829 E6.6209
G1 X36.180 Y85.395 E6.6397
G1 X28.820 Y78.035 E6.9859
G1 X28.820 Y78.600 E7.0047
G1 X36.180 Y85.960 E7.3509
G1 X36.180 Y86.526 E7.3697
G1 X28.820 Y79.166 E7.7159
G1 X28.820 Y79.732 E7.7347
G1 X36.180 Y87.092 E8.0809
G1 X36.180 Y87.657 E8.0997
G1 X28.820 Y80.297 E8.4459
G1 X28.820 Y80.863 E8.4648
G1 X36.180 Y88.223 E8.8109
G1 X36.180 Y88.789 E8.8298
G1 X28.820 Y81.429 E9.1759
G1 X28.820 Y81.994 E9.1948
G1 X36.180 Y89.354 E9.5410
G1 X36.180 Y89.920 E9.5598
G1 X28.820 Y82.560 E9.9060
G1 X28.820 Y83.126 E9.9248
G1 X36.180 Y90.486 E10.2710
G1 X36.180 Y91.051 E10.2898
G1 X28.820 Y83.691 E10.6360
G1 X28.820 Y84.257 E10.6548
G1 X36.180 Y91.617 E11.0010
G1 X36.180 Y92.183 E11.0198
G1 X28.820 Y84.823 E11.3660
G1 X28.820 Y85.389 E11.3848
G1 X36.180 Y92.749 E11.7310
G1 X36.180 Y93.314 E11.7498
G1 X28.820 Y85.954 E12.0960
G1 X28.820 Y86.520 E12.1148
G1 X36.180 Y93.880 E12.4610
G1 X36.180 Y94.446 E12.4798
G1 X28.820 Y87.086 E12.8260
G1 X28.820 Y87.651 E12.8448
G1 X36.180 Y95.011 E13.1910
G1 X36.180 Y95.577 E13.2098
G1 X28.820 Y88.217 E13.5560
G1 X28.820 Y88.783 E13.5748
G1 X36.180 Y96.143 E13.9210
G1 X36.180 Y96.708 E13.9399
G1 X28.820 Y89.348 E14.2860
G1 X28.820 Y89.914 E14.3049
G1 X36.180 Y97.274 E14.6510
G1 X36.180 Y97.840 E14.6699
G1 X28.820 Y90.480 E15.0161
G1 X28.820 Y91.045 E15.0349
G1 X36.180 Y98.405 E15.3811
G1 X36.180 Y98.971 E15.3999
G1 X28.820 Y91.611 E15.7461
G1 X28.820 Y92.177 E15.7649
G1 X36.180 Y99.537 E16.1111
G1 X36.180 Y100.102 E16.1299
G1 X28.820 Y92.742 E16.4761
G1 X28.820 Y93.308 E16.4949
G1 X36.180 Y100.668 E16.8411
G1 X36.180 Y101.234 E16.8599
G1 X28.820 Y93.874 E17.2061
G1 X28.820 Y94.439 E17.2249
G1 X36.180 Y101.799 E17.5711
G1 X36.180 Y102.365 E17.5899
G1 X28.820 Y95.005 E17.9361
G1 X28.820 Y95.571 E17.9549
G1 X36.180 Y102.931 E18.3011
G1 X36.180 Y103.497 E18.3199
G1 X28.820 Y96.137 E18.6661
G1 X28.820 Y96.702 E18.6849
G1 X36.180 Y104.062 E19.0311
G1 X36.180 Y104.628 E19.0499
G1 X28.820 Y97.268 E19.3961
G1 X28.820 Y97.834 E19.4149
G1 X36.180 Y105.194 E19.7611
G1 X36.180 Y105.759 E19.7800
G1 X28.820 Y98.399 E20.1261
G1 X28.820 Y98.965 E20.1450
G1 X36.180 Y106.325 E20.4912
G1 X36.180 Y106.891 E20.5100
G1 X28.820 Y99.531 E20.8562
G1 X28.820 Y100.096 E20.8750
G1 X36.180 Y107.456 E21.2212
G1 X36.180 Y108.022 E21.2400
G1 X28.820 Y100.662 E21.5862
G1 X28.820 Y101.228 E21.6050
G1 X36.180 Y108.588 E21.9512
G1 X36.180 Y109.153 E21.9700
G1 X28.820 Y101.793 E22.3162
G1 X28.820 Y102.359 E22.3350
G1 X36.180 Y109.719 E22.6812
G1 X36.180 Y110.285 E22.7000
G1 X28.820 Y102.925 E23.0462
G1 X28.820 Y103.490 E23.0650
G1 X36.180 Y110.850 E23.4112
G1 X36.180 Y111.416 E23.4300
G1 X28.820 Y104.056 E23.7762
G1 X28.820 Y104.622 E23.7950
G1 X36.180 Y111.982 E24.1412
G1 X36.180 Y112.548 E24.1600
G1 X28.820 Y105.188 E24.5062
G1 X28.820 Y105.753 E24.5250
G1 X36.180 Y113.113 E24.8712
G1 X36.180 Y113.679 E24.8900
G1 X28.820 Y106.319 E25.2362
G1 X28.820 Y106.885 E25.2551
G1 X36.180 Y114.245 E25.6012
G1 X36.180 Y114.810 E25.6201
G1 X28.820 Y107.450 E25.9663
G1 X28.820 Y108.016 E25.9851
G1 X36.180 Y115.376 E26.3313
G1 X36.180 Y115.942 E26.3501
G1 X28.820 Y108.582 E26.6963
G1 X28.820 Y109.147 E26.7151
G1 X36.180 Y116.507 E27.0613
G1 X36.180 Y117.073 E27.0801
G1 X28.820 Y109.713 E27.4263
G1 X28.820 Y110.279 E27.4451
G1 X36.180 Y117.639 E27.7913
G1 X36.180 Y118.204 E27.8101
G1 X28.820 Y110.844 E28.1563
G1 X28.820 Y111.410 E28.1751
G1 X36.180 Y118.770 E28.5213
G1 X36.180 Y119.336 E28.5401
G1 X28.820 Y111.976 E28.8863
G1 X28.820 Y112.541 E28.9051
G1 X36.180 Y119.901 E29.2513
G1 X36.180 Y120.467 E29.2701
G1 X28.820 Y113.107 E29.6163
G1 X28.820 Y113.673 E29.6351
G1 X36.180 Y121.033 E29.9813
G1 X36.180 Y121.598 E30.0001
G1 X28.820 Y114.238 E30.3463
G1 X28.820 Y114.804 E30.3651
G1 X36.180 Y122.164 E30.7113
G1 X36.180 Y122.730 E30.7302
G1 X28.820 Y115.370 E31.0763
G1 X28.820 Y115.936 E31.0952
G1 X36.180 Y123.296 E31.4414
G1 X36.180 Y123.861 E31.4602
G1 X28.820 Y116.501 E31.8064
G1 X28.820 Y117.067 E31.8252
G1 X36.180 Y124.427 E32.1714
G1 X36.180 Y124.993 E32.1902
G1 X28.820 Y117.633 E32.5364
G1 X28.820 Y118.198 E32.5552
G1 X36.180 Y125.558 E32.9014
G1 X36.180 Y126.124 E32.9202
G1 X28.820 Y118.764 E33.2664
G1 X28.820 Y119.330 E33.2852
G1 X43.170 Y133.680 E33.9602
G1 X43.736 Y133.680 E33.9790
G1 X36.376 Y126.320 E34.3252
G1 X36.942 Y126.320 E34.3440
G1 X44.302 Y133.680 E34.6902
G1 X44.867 Y133.680 E34.7090
G1 X37.507 Y126.320 E35.0552
G1 X38.073 Y126.320 E35.0740
G1 X45.433 Y133.680 E35.4202
G1 X45.999 Y133.680 E35.4390
G1 X38.639 Y126.320 E35.7852
G1 X39.204 Y126.320 E35.8040
G1 X46.564 Y133.680 E36.1502
G1 X47.130 Y133.680 E36.1691
G1 X39.770 Y126.320 E36.5152
G1 X40.336 Y126.320 E36.5341
G1 X47.696 Y133.680 E36.8802
G1 X48.262 Y133.680 E36.8991
G1 X40.902 Y126.320 E37.2453
G1 X41.467 Y126.320 E37.2641
G1 X48.827 Y133.680 E37.6103
G1 X49.393 Y133.680 E37.6291
G1 X42.033 Y126.320 E37.9753
G1 X42.599 Y126.320 E37.9941
G1 X49.959 Y133.680 E38.3403
G1 X50.524 Y133.680 E38.3591
G1 X43.164 Y126.320 E38.7053
G1 X43.730 Y126.320 E38.7241
G1 X51.090 Y133.680 E39.0703
G1 X51.656 Y133.680 E39.0891
G1 X44.296 Y126.320 E39.4353
G1 X44.861 Y126.320 E39.4541
G1 X52.221 Y133.680 E39.8003
G1 X52.787 Y133.680 E39.8191
G1 X45.427 Y126.320 E40.1653
G1 X45.993 Y126.320 E40.1841
G1 X53.353 Y133.680 E40.5303
G1 X53.918 Y133.680 E40.5491
G1 X46.558 Y126.320 E40.8953
G1 X47.124 Y126.320 E40.9141
G1 X54.484 Y133.680 E41.2603
G1 X55.050 Y133.680 E41.2791
G1 X47.690 Y126.320 E41.6253
G1 X48.255 Y126.320 E41.6442
G1 X55.615 Y133.680 E41.9903
G1 X56.181 Y133.680 E42.0092
G1 X48.821 Y126.320 E42.3553
G1 X49.387 Y126.320 E42.3742
G1 X56.747 Y133.680 E42.7204
G1 X57.312 Y133.680 E42.7392
G1 X49.952 Y126.320 E43.0854
G1 X50.518 Y126.320 E43.1042
G1 X57.878 Y133.680 E43.4504
G1 X58.444 Y133.680 E43.4692
G1 X51.084 Y126.320 E43.8154
G1 X51.650 Y126.320 E43.8342
G1 X59.010 Y133.680 E44.1804
G1 X59.575 Y133.680 E44.1992
G1 X52.215 Y126.320 E44.5454
G1 X52.781 Y126.320 E44.5642
G1 X60.141 Y133.680 E44.9104
G1 X60.707 Y133.680 E44.9292
G1 X53.347 Y126.320 E45.2754
G1 X53.912 Y126.320 E45.2942
G1 X61.272 Y133.680 E45.6404
G1 X61.838 Y133.680 E45.6592
G1 X54.478 Y126.320 E46.0054
G1 X55.044 Y126.320 E46.0242
G1 X62.404 Y133.680 E46.3704
